startshape Stage

n = 119
m = 84

shape Stage {
  Loop []
  Loop [r 180]
}

shape Loop {
  loop i = n [x 1]
    loop j = m [y 1]
      if (rand() < i/n*j/m) Glyph []
}

shape Glyph
rule { l [] }
rule { l [f 90 x 1] }

path l {
  LINETO(1, 1)
  STROKE []
}