CF::MinimumSize = 2

startshape Matrix

shape Matrix {
  loop 3 [x 12]
    loop 5 [y 10]
      Loop []
}

shape Loop {
  loop 7 [y 1]
    Tail []
}

shape Tail
rule {
  B []
  Tail [s 0.9 x 0.9 r (20*(rand()-0.5))]
}

shape B
rule { SQUARE [] }
rule 2 { SQUARE [b 0.75] }