CF::Background = [hue 103 b -.175 saturation .05]

startshape S

n = 20

shape S {
  C [flip -3 x -0.5]
  C [flip 30 x  0.5]
}

shape C
rule {
  loop i = n [] {
    if (i <> 0)
      l(i, n) []
    l(-1 * i, n) []
  }
  C [x 0.2 y 0.19 flip 10 s 0.9]
}
rule {
  C [x 0.2 y 0.21 flip -8 s 0.9]
  C [x 0.19 y 0.18 flip -7 s 0.9]
}
rule 0.9 {
}

path l(i, n) {
  width = sqrt(1 - (i/n)^2)
  ypoint = i/n
  MOVETO( -width, ypoint )
  LINETO( width, ypoint)
  STROKE(0.01) [a -0.75]
}
